img/badge-quick-chat.svg

<?xml version="1.0" encoding="utf-8"?>
<svg width="24" height="24" xmlns="http://www.w3.org/2000/svg">
  <path id="svg_1" clip-rule="evenodd" d="M 11.957 2 C 6.416 2 2 6.502 2 12.043 C 2 17.584 6.502 22.087 12.043 22.087 C 13.514999999999999 22.087 14.899999999999999 21.74 16.198999999999998 21.134 L 16.631999999999998 20.961000000000002 L 17.064999999999998 21.134 C 18.226408759746512 21.48530923414063 19.41329509386179 21.74608989377714 20.615 21.914 C 20.245450949929012 21.097621706437426 19.927166719785333 20.258994526458437 19.662 19.403000000000002 L 19.489 18.797 L 19.835 18.277 C 21.221 16.545 22 14.294 22 12.043000000000001 C 22 6.503000000000001 17.498 2.0000000000000018 11.957 2.0000000000000018 L 11.957 2 Z" fill-rule="evenodd" style="stroke: rgb(0, 0, 0); fill: rgb(255, 255, 255);"></path>
  <path id="svg_1" clip-rule="evenodd" d="M 14.25 6.6 L 13.125 10.95 L 16.425 10.95 L 9.9 17.549999999999997 L 10.950000000000001 13.124999999999996 L 7.725000000000001 13.124999999999996 L 14.250000000000002 6.599999999999996 L 14.25 6.6 Z" fill-rule="evenodd" style=""></path>
</svg>

<?xml version="1.0" encoding="utf-8"?>
<svg width="24" height="24" xmlns="http://www.w3.org/2000/svg">
 <g>
  <title>Layer 1</title>
  <path id="svg_1" clip-rule="evenodd" d="m12,1c6.046,0 11,4.954 11,11c0,2.603 -0.924,4.954 -2.351,6.802l0.122,0.559c0.316,1.386 0.745,2.676 1.857,3.639c-1.26,0 -3.49,-0.252 -6.01,-1.008a10.52,10.52 0 0 1 -4.534,1.008c-6.13,0 -11.084,-4.954 -11.084,-11s4.954,-11 11,-11zm-0.043,1c-5.541,0 -9.957,4.502 -9.957,10.043c0,5.541 4.502,10.044 10.043,10.044c1.472,0 2.857,-0.347 4.156,-0.953l0.433,-0.173l0.433,0.173a23.487,23.487 0 0 0 3.55,0.78a21.557,21.557 0 0 1 -0.953,-2.511l-0.173,-0.606l0.346,-0.52c1.386,-1.732 2.165,-3.983 2.165,-6.234c0,-5.54 -4.502,-10.043 -10.043,-10.043zm2.293,4.6l-1.125,4.35l3.3,0l-6.525,6.6l1.05,-4.425l-3.225,0l6.525,-6.525z" fill-rule="evenodd" fill="currentColor"/>
 </g>
</svg>
